X: 265
T: The Plains Of Boyle
R: hornpipe
M: 4/4
L: 1/8
K: Dmaj
|:FG|"D"AFDE FEDF|"D"(3ABA "C"GB "D"AFD2|"D"fedf "A"edce|"D"dBAB "C"=cAGB|
"D"AFDE FEDF|"D"(3ABA "C"GB "D"AFD2|"D"fedB "A"ABAG|"D"F2D2 D2:|
|:fg|"D"afdf "A"g2fe|"D"dfed "G"BAFG|"D"(3ABA FA BAFA|"D"(3ABA FA BAFg|
"D"afdf "A"g2fe|"D"dfed "G"BAFG|"D"(3ABA AF "A"GBAG|"D"F2D2 D2:| 

